public/images/sns-document.svg

<svg viewBox="0 0 548 619" xmlns="http://www.w3.org/2000/svg"><path d="M235.044 272.175H162.151C153.522 272.175 150.662 271.716 146.245 270.388C134.322 266.865 125.028 254.941 125.028 240.797C125.028 226.652 134.322 214.755 146.22 211.18C150.662 209.878 153.522 209.444 162.151 209.444H209.41V162.134C209.41 153.504 209.87 150.645 211.198 146.228C214.721 134.075 226.644 125.011 240.789 125.011C254.908 125.011 266.856 134.279 270.405 146.228C271.707 150.645 272.167 153.504 272.167 162.134V235.027C272.167 239.444 272.167 243.861 271.273 247.844C269.85 253.497 266.921 258.659 262.799 262.781C258.676 266.904 253.514 269.832 247.861 271.256C243.878 272.15 239.461 272.175 235.044 272.175ZM469.194 539.9H78.2033V195.504C78.2033 191.087 79.7352 187.334 82.8246 184.27L184.236 82.8328C185.698 81.3353 187.452 80.1528 189.388 79.3581C191.324 78.5634 193.403 78.1732 195.496 78.2116H469.194V539.9ZM18.9955 137.649C8.60415 148.015 1.78721 161.062 0.434037 175.64C0.155072 178.79 0.010262 181.95 0 185.112L0 574.572C0 579.652 0.229785 582.282 0.434037 584.274C2.22125 600.869 17.2338 615.882 33.8039 617.644C35.7953 617.848 38.4506 618.078 43.5059 618.078H503.892C508.973 618.078 511.628 617.848 513.594 617.644C530.189 615.856 545.202 600.844 546.964 584.274C547.194 582.282 547.398 579.652 547.398 574.572V43.5141C547.398 38.4078 547.194 35.778 546.964 33.7866C545.177 17.2165 530.164 2.20395 513.619 0.442269C510.388 0.107417 507.14 -0.0375109 503.892 0.00823162H185.104C181.933 0.0185225 178.764 0.171868 175.606 0.467801C161.002 1.76991 147.981 8.63792 137.59 19.0038L18.9955 137.649Z" fill="currentColor"/></svg>

<svg viewBox="0 0 548 619" xmlns="http://www.w3.org/2000/svg"><path d="M235.044 272.175h-72.893c-8.629 0-11.489-.459-15.906-1.787-11.923-3.523-21.217-15.447-21.217-29.591 0-14.145 9.294-26.042 21.192-29.617 4.442-1.302 7.302-1.736 15.931-1.736h47.259v-47.31c0-8.63.46-11.489 1.788-15.906 3.523-12.153 15.446-21.217 29.591-21.217 14.119 0 26.067 9.268 29.616 21.217 1.302 4.417 1.762 7.276 1.762 15.906v72.893c0 4.417 0 8.834-.894 12.817a32.263 32.263 0 0 1-23.412 23.412c-3.983.894-8.4.919-12.817.919ZM469.194 539.9H78.204V195.504c0-4.417 1.531-8.17 4.62-11.234L184.237 82.833a15.344 15.344 0 0 1 11.26-4.621h273.698V539.9ZM18.995 137.649C8.605 148.015 1.787 161.062.434 175.64c-.279 3.15-.424 6.31-.434 9.472v389.46c0 5.08.23 7.71.434 9.702 1.787 16.595 16.8 31.608 33.37 33.37 1.991.204 4.647.434 9.702.434h460.386c5.081 0 7.736-.23 9.702-.434 16.595-1.788 31.608-16.8 33.37-33.37.23-1.992.434-4.622.434-9.702V43.514c0-5.106-.204-7.736-.434-9.727-1.787-16.57-16.8-31.583-33.345-33.345a83.02 83.02 0 0 0-9.727-.434H185.104c-3.171.01-6.34.164-9.498.46-14.604 1.302-27.625 8.17-38.016 18.536L18.995 137.649Z" fill="currentColor"/></svg>
